X: 2068
T: Âşık Olalı Sen Yâre Gönül
C: Dede Efendi
O: Turkey
F: http://compmusic.upf.edu/node/140
N: isfahan--sarki--aksak--asik_olali--dede_efendi
N: makam= isfahan
N: form= sarki
N: usul= aksak = 9/8
M: 9/8
L: 1/16
K: C _2/4B   
Q: 1/4=144
%%MIDI tuningsystem comma53
d4 A4 e2d2 e2ef ed | d3cg2 feed (3edcd6  | \
w:  *  Â şık   |  *  *  o la *  lı   | 
z4 c2d2 e2f2 a2g2 f2 | 
w:  sen  *  yâ  | 
ef edde dccB ABc4B2  | g2fe d2a2 a2g2 f2e2 d2 | 
w:  *  *  *  *  re  *  gö *  nül    |  Yan *  *  *  *  mak  | 
c3Bd2 cBB2 ABc4BA  | G2z2 d4 dcde c4 BA | 
w:  *  *  ta  yü *  rek   |  *  pür  yâ  | 
B3Ad2 cBA4ef edce  | d4 A4 e2d2 e2ef ed | 
w:  *  *  re  gö *  nül   SAZ  |  *  Â şık   | 
d3cg2 feed (3edcd6  | z4 c2d2 e2f2 a2g2 f2 | \
w:  *  *  o la *  lı   |  sen  *  yâ  | 
ef edde dccB ABc4B2  | 
w:  *  *  *  *  re  *  gö *  nül    | 
g2fe d2a2 a2g2 f2e2 d2 | c3Bd2 cBB2 ABc4BA  | 
w:  Yan *  *  *  *  mak  |  *  *  ta  yü *  rek   | 
G2z2 d4 dcde c4 BA | B3Ad2 cBA4a2 abgb  | 
w:  *  pür  yâ  |  *  *  re  gö *  nül   SAZ  | 
a4 a4 gag^3/4f e4 f2 | d2 z2e2 ^3/4f2ga gfg3gfa  | \
w:  *  Tek  et  |  *  me  fe dâ  *  *  *  *  SAZ  | 
g4 g4 d'2c'2 c'4 ba | 
w:  *  sen  bu   | 
b3ac'_b bab2 a2b4a2  | _b2z2 a2b2 d'2c'2 b2a2 g2 | \
w:  *  *  ku *  lu *  nu    |  *  Râ *  zı   | 
g2 f2g2 a2a2 g2f2 e2_3/4d2  | 
w:  o *  lu *  yor   | 
c2z2 c2_3/4d2 e2f2 _2/4a2g2 f2 | ef e_3/4dc2 d2cB ABc4z2  | 
w:  *  â *  zâ  |  *  *  *  *  re  gö nül    | 
z16  | c8g2f2g2e2 | e2c2d2e2f8  | z4e4_b8 | \
w:  |  Us lan  |  ma *  ya *  cak   |  hiç  çâ  | 
_b2a2a2g2a2g2f2e2  | 
w:  re *  si  *  yok    | 
f2z2f4a2g2f2e2 | d2c2d2e2f8  | z4f4_b8 | z18 | \
w:  *  Al dan  |  ma *  ya *  cak   |  hiç  çâ  |  | 
_b2 a2a2 g2a2 g2f2 e2g2  | 
w:  re *  si  *  yok    | 
f2z2 f4 a2g2 f2e2 _3/4d2 | c3B_3/4d2 cBB2 ABc6  | \
w:  *  Dî vâ  |  *  *  ne  gö *  nül   | 
B2z2 d4 dcde c4 BA | 
w:  *  bî çâ  | 
B3Ad2 cBA8-A2  | |


